material/.icons/material/betamax.svg

<svg xmlns="http://www.w3.org/2000/svg" viewBox="0 0 24 24"><path d="M4 5a2 2 0 00-2 2v10a2 2 0 002 2h16a2 2 0 002-2V7a2 2 0 00-2-2H4m4 4a4 4 0 014 4 4 4 0 01-4 4 4 4 0 01-4-4 4 4 0 014-4m5 0h7v8h-7V9m-5 2a2 2 0 00-2 2 2 2 0 002 2 2 2 0 002-2 2 2 0 00-2-2z"/></svg>

<?xml version="1.0" encoding="UTF-8"?><!DOCTYPE svg PUBLIC "-//W3C//DTD SVG 1.1//EN" "http://www.w3.org/Graphics/SVG/1.1/DTD/svg11.dtd"><svg xmlns="http://www.w3.org/2000/svg" xmlns:xlink="http://www.w3.org/1999/xlink" version="1.1" id="mdi-betamax" width="24" height="24" viewBox="0 0 24 24"><path d="M4,5A2,2 0 0,0 2,7V17A2,2 0 0,0 4,19H20A2,2 0 0,0 22,17V7A2,2 0 0,0 20,5H4M8,9A4,4 0 0,1 12,13A4,4 0 0,1 8,17A4,4 0 0,1 4,13A4,4 0 0,1 8,9M13,9H20V17H13V9M8,11A2,2 0 0,0 6,13A2,2 0 0,0 8,15A2,2 0 0,0 10,13A2,2 0 0,0 8,11Z" /></svg>
